Numix-Circle/48x48/apps/vocal.svg

<?xml version="1.0" encoding="UTF-8" standalone="no"?>
<svg
   xmlns:dc="http://purl.org/dc/elements/1.1/"
   xmlns:cc="http://creativecommons.org/ns#"
   xmlns:rdf="http://www.w3.org/1999/02/22-rdf-syntax-ns#"
   xmlns:svg="http://www.w3.org/2000/svg"
   xmlns="http://www.w3.org/2000/svg"
   xmlns:xlink="http://www.w3.org/1999/xlink"
   xmlns:sodipodi="http://sodipodi.sourceforge.net/DTD/sodipodi-0.dtd"
   xmlns:inkscape="http://www.inkscape.org/namespaces/inkscape"
   width="48"
   viewBox="0 0 13.546667 13.546667"
   height="48"
   id="svg2"
   version="1.1"
   inkscape:version="0.91 r13725"
   sodipodi:docname="vocal.svg">
  <metadata
     id="metadata331">
    <rdf:RDF>
      <cc:Work
         rdf:about="">
        <dc:format>image/svg+xml</dc:format>
        <dc:type
           rdf:resource="http://purl.org/dc/dcmitype/StillImage" />
        <dc:title />
      </cc:Work>
    </rdf:RDF>
  </metadata>
  <sodipodi:namedview
     pagecolor="#ffffff"
     bordercolor="#666666"
     borderopacity="1"
     objecttolerance="10"
     gridtolerance="10"
     guidetolerance="10"
     inkscape:pageopacity="0"
     inkscape:pageshadow="2"
     inkscape:window-width="1920"
     inkscape:window-height="1052"
     id="namedview329"
     showgrid="true"
     inkscape:zoom="15.370449"
     inkscape:cx="14.918858"
     inkscape:cy="27.321095"
     inkscape:window-x="0"
     inkscape:window-y="28"
     inkscape:window-maximized="1"
     inkscape:current-layer="layer3">
    <inkscape:grid
       type="xygrid"
       id="grid3308" />
  </sodipodi:namedview>
  <defs
     id="defs4">
    <linearGradient
       inkscape:collect="always"
       xlink:href="#linearGradient4460-9-2"
       id="linearGradient4033"
       x1="-27"
       y1="13"
       x2="-24"
       y2="13"
       gradientUnits="userSpaceOnUse" />
    <linearGradient
       id="linearGradient4460-9-2">
      <stop
         id="stop4454-4"
         style="stop-color:#bf59c0;stop-opacity:1;"
         offset="0" />
      <stop
         id="stop4456-9"
         style="stop-color:#e37bd5;stop-opacity:1;"
         offset="1" />
    </linearGradient>
  </defs>
  <g
     inkscape:groupmode="layer"
     id="layer1"
     inkscape:label="Shadow"
     sodipodi:insensitive="true">
    <path
       style="opacity:0.05;fill:#000000;fill-opacity:1;stroke:none"
       d="M 25,2 C 12.297451,2 2,12.297451 2,25 2,31.367153 4.6007106,37.116628 8.78125,41.28125 12.865755,44.99361 18.29568,47.25 24.25,47.25 c 12.702549,0 23,-10.297451 23,-23 0,-5.95432 -2.25639,-11.384245 -5.96875,-15.46875 C 37.116628,4.6007105 31.367153,2 25,2 z M 41.28125,8.78125 C 45.135604,12.894061 47.5,18.418655 47.5,24.5 c 0,12.702549 -10.297451,23 -23,23 C 18.418655,47.5 12.894061,45.135604 8.78125,41.28125 12.940939,45.4251 18.664604,48 25,48 37.702549,48 48,37.702549 48,25 48,18.664604 45.4251,12.940939 41.28125,8.78125 z"
       transform="scale(0.28222223,0.28222223)"
       id="path3978"
       inkscape:connector-curvature="0" />
    <path
       style="opacity:0.1;fill:#000000;fill-opacity:1;stroke:none"
       d="M 41.28125,8.78125 C 44.99361,12.865755 47.25,18.29568 47.25,24.25 c 0,12.702549 -10.297451,23 -23,23 -5.95432,0 -11.384245,-2.25639 -15.46875,-5.96875 C 12.894061,45.135604 18.418655,47.5 24.5,47.5 c 12.702549,0 23,-10.297451 23,-23 0,-6.081345 -2.364396,-11.605939 -6.21875,-15.71875 z"
       transform="scale(0.28222223,0.28222223)"
       id="path3976"
       inkscape:connector-curvature="0" />
    <path
       transform="matrix(4.3274074,0,0,3.2455556,117.19278,-35.348334)"
       d="m -24,13 a 1.5,2 0 1 1 -3,0 1.5,2 0 1 1 3,0 z"
       sodipodi:ry="2"
       sodipodi:rx="1.5"
       sodipodi:cy="13"
       sodipodi:cx="-25.5"
       id="path3952"
       style="opacity:0.2;fill:#000000;fill-opacity:1;stroke:none"
       sodipodi:type="arc" />
  </g>
  <g
     inkscape:groupmode="layer"
     id="layer2"
     inkscape:label="Base">
    <path
       sodipodi:type="arc"
       style="fill:url(#linearGradient4033);fill-opacity:1.0;stroke:none"
       id="path3942"
       sodipodi:cx="-25.5"
       sodipodi:cy="13"
       sodipodi:rx="1.5"
       sodipodi:ry="2"
       d="m -24,13 a 1.5,2 0 1 1 -3,0 1.5,2 0 1 1 3,0 z"
       transform="matrix(0,-4.3274075,3.2455556,0,-35.418894,-103.57556)" />
    <path
       style="opacity:0.1;fill:#000000;fill-opacity:1;stroke:none"
       d="M 40.03125 7.53125 C 43.74361 11.615755 46 17.04568 46 23 C 46 35.702549 35.702549 46 23 46 C 17.04568 46 11.615755 43.74361 7.53125 40.03125 C 11.709416 44.322508 17.537578 47 24 47 C 36.702549 47 47 36.702549 47 24 C 47 17.537578 44.322508 11.709416 40.03125 7.53125 z "
       id="path4027"
       transform="scale(0.28222223,0.28222223)" />
  </g>
  <g
     inkscape:groupmode="layer"
     id="layer3"
     inkscape:label="Symbol">
    <g
       id="g3927"
       style="opacity:0.1;fill:#000000;fill-opacity:1"
       transform="matrix(0.28222223,0,0,0.28222223,0.28222222,0.56444443)">
      <path
         inkscape:connector-curvature="0"
         id="path3917"
         style="text-indent:0;text-transform:none;block-progression:tb;color:#bebebe;fill:#000000;fill-opacity:1"
         d="m 19.555563,20.000002 c -0.306825,0 -0.555561,0.223859 -0.555561,0.5 l 0,2.968799 c 0,1.968401 1.968473,3.972547 3.999998,4.249999 L 23,29 19.999998,28.999998 20,30 l 8,0 -2e-6,-1.000002 L 25,29 25,27.7188 c 2,-0.308976 4.000001,-2.281598 4.000001,-4.249999 l 0,-2.968799 c 0,-0.276141 -0.248736,-0.5 -0.555562,-0.5 -0.306825,0 -0.461784,0.223859 -0.461784,0.5 0.07759,0.959442 0.03469,1.984316 0.03469,2.968701 0,1.9642 -1.848241,3.5312 -4.017377,3.5312 -2.169245,0 -3.999967,-1.5671 -3.999967,-3.5312 l 0,-2.968801 c 0,-0.276141 -0.1377,-0.500001 -0.444526,-0.500001 z"
         sodipodi:nodetypes="cssccccccccsssccssscc" />
      <path
         style="fill:#000000;fill-opacity:1;stroke:none"
         d="m 24,15 c -1.346543,0 -2.636798,0.858741 -2.9375,2 L 21,18 27,18 26.9375,17 C 26.636798,15.85874 25.346542,15 24,15 z m -3,4 0,1 6,0 0,-1 z m 0,2 0,1 6,0 0,-1 z m 0,2 0,0.5 c 0,1.385 1.461094,2.5 3,2.5 1.538905,0 3,-1.115 3,-2.5 L 27,23 z"
         id="path3919"
         inkscape:connector-curvature="0"
         sodipodi:nodetypes="sccccscccccccccccssscc" />
      <rect
         style="fill:#000000;fill-opacity:1;stroke:none"
         id="rect3921"
         width="2"
         height="10"
         x="23"
         y="17" />
      <path
         style="fill:#000000;fill-opacity:1;stroke:none"
         d="M 24,8 C 15.715729,8 9,14.715729 9,23 9,31.284271 15.715729,38 24,38 32.284271,38 39,31.284271 39,23 39,14.715729 32.284271,8 24,8 z m 0,1 c 7.731986,0 14,6.268014 14,14 0,7.731986 -6.268014,14 -14,14 C 16.268014,37 10,30.731986 10,23 10,15.268014 16.268014,9 24,9 z"
         id="path3923"
         inkscape:connector-curvature="0" />
      <path
         style="fill:#000000;fill-opacity:1;stroke:none"
         d="m 24,11 c -6.627417,0 -12,5.372583 -12,12 0,6.627417 5.372583,12 12,12 6.627417,0 12,-5.372583 12,-12 0,-6.627417 -5.372583,-12 -12,-12 z m 0,1 c 6.075132,0 11,4.924868 11,11 0,6.075132 -4.924868,11 -11,11 -6.075132,0 -11,-4.924868 -11,-11 0,-6.075132 4.924868,-11 11,-11 z"
         id="path3925"
         inkscape:connector-curvature="0" />
    </g>
    <path
       inkscape:connector-curvature="0"
       id="rect6806"
       style="text-indent:0;text-transform:none;block-progression:tb;color:#bebebe;fill:#f9dff5;fill-opacity:1"
       d="m 5.5190146,5.9266673 c -0.086593,0 -0.1567916,0.063178 -0.1567916,0.1411111 l 0,0.8378611 c 0,0.5555265 0.5555468,1.1211411 1.1288883,1.1994442 l 0,0.3615829 -0.8466672,0 5e-7,0.282222 2.2577779,0 -6e-7,-0.282222 -0.8466661,0 0,-0.3615829 C 7.6200002,8.0178837 8.184445,7.461166 8.184445,6.9056395 l 0,-0.8378611 c 0,-0.077933 -0.070199,-0.1411111 -0.156792,-0.1411111 -0.086593,0 -0.1303257,0.063178 -0.1303257,0.1411111 0.021898,0.2707759 0.00979,0.5600181 0.00979,0.8378334 0,0.5543409 -0.5216147,0.9965832 -1.1337931,0.9965832 -0.6122092,0 -1.1288796,-0.4422705 -1.1288796,-0.9965832 l 0,-0.8378616 c 0,-0.077933 -0.038862,-0.1411114 -0.1254551,-0.1411114 z"
       sodipodi:nodetypes="cssccccccccsssccssscc" />
    <path
       style="fill:#f9dff5;fill-opacity:1;stroke:none"
       d="m 6.7733335,4.5155556 c -0.3800243,0 -0.744163,0.2423558 -0.8290278,0.5644445 l -0.017639,0.2822222 1.6933334,0 -0.017639,-0.2822222 C 7.5174965,4.7579111 7.1533576,4.5155556 6.7733335,4.5155556 z m -0.8466667,1.1288889 0,0.2822222 1.6933334,0 0,-0.2822222 z m 0,0.5644445 0,0.2822222 1.6933334,0 0,-0.2822222 z m 0,0.5644444 0,0.1411112 c 0,0.3908777 0.4123533,0.7055555 0.8466667,0.7055555 0.4343132,0 0.8466667,-0.3146778 0.8466667,-0.7055555 l 0,-0.1411112 z"
       id="rect3130"
       inkscape:connector-curvature="0"
       sodipodi:nodetypes="sccccscccccccccccssscc" />
    <rect
       style="fill:#f9dff5;fill-opacity:1;stroke:none"
       id="rect3137"
       width="0.56444448"
       height="2.8222222"
       x="6.4911113"
       y="5.0800004" />
    <path
       inkscape:connector-curvature="0"
       style="fill:#f9f9f9;fill-opacity:1;stroke:none"
       d="m 6.7733335,2.54 c -2.3380054,0 -4.2333334,1.895328 -4.2333334,4.2333334 0,2.3380052 1.895328,4.2333336 4.2333334,4.2333336 2.3380055,0 4.2333335,-1.8953284 4.2333335,-4.2333336 C 11.006667,4.435328 9.111339,2.54 6.7733335,2.54 z m 0,0.2822223 c 2.1821384,0 3.9511105,1.7689728 3.9511105,3.9511111 0,2.1821382 -1.7689721,3.9511116 -3.9511105,3.9511116 -2.1821383,0 -3.9511112,-1.7689734 -3.9511112,-3.9511116 0,-2.1821383 1.7689729,-3.9511111 3.9511112,-3.9511111 z"
       id="path3907" />
    <path
       inkscape:connector-curvature="0"
       style="fill:#f9f9f9;fill-opacity:1;stroke:none"
       d="m 6.7733335,3.3866667 c -1.8704044,0 -3.3866667,1.5162623 -3.3866667,3.3866667 0,1.8704042 1.5162623,3.3866676 3.3866667,3.3866676 C 8.6437379,10.160001 10.16,8.6437376 10.16,6.7733334 10.16,4.902929 8.6437379,3.3866667 6.7733335,3.3866667 z m 0,0.2822222 c 1.7145373,0 3.1044448,1.3899072 3.1044448,3.1044445 0,1.7145372 -1.3899075,3.1044442 -3.1044448,3.1044442 -1.7145373,0 -3.1044445,-1.389907 -3.1044445,-3.1044442 0,-1.7145373 1.3899072,-3.1044445 3.1044445,-3.1044445 z"
       id="path3912" />
  </g>
</svg>

<svg xmlns="http://www.w3.org/2000/svg" width="48" viewBox="0 0 13.546667 13.546667" height="48"><defs><linearGradient id="linearGradient4033" x1="-27" x2="-24" gradientUnits="userSpaceOnUse"><stop stop-color="#bf59c0" stop-opacity="1"/><stop offset="1" stop-color="#e37bd5" stop-opacity="1"/></linearGradient></defs><g><path d="m 25 2 c -12.703 0 -23 10.297 -23 23 0 6.367 2.601 12.12 6.781 16.281 4.085 3.712 9.514 5.969 15.469 5.969 c 12.703 0 23 -10.297 23 -23 0 -5.954 -2.256 -11.384 -5.969 -15.469 c -4.165 -4.181 -9.914 -6.781 -16.281 -6.781 z m 16.281 6.781 c 3.854 4.113 6.219 9.637 6.219 15.719 c 0 12.703 -10.297 23 -23 23 c -6.081 0 -11.606 -2.364 -15.719 -6.219 4.16 4.144 9.883 6.719 16.219 6.719 12.703 0 23 -10.297 23 -23 0 -6.335 -2.575 -12.06 -6.719 -16.219 z" transform="scale(0.28222223,0.28222223)" opacity="0.05" fill="#000" stroke="none" fill-opacity="1"/><path d="m 41.28 8.781 c 3.712 4.085 5.969 9.514 5.969 15.469 c 0 12.703 -10.297 23 -23 23 -5.954 0 -11.384 -2.256 -15.469 -5.969 c 4.113 3.854 9.637 6.219 15.719 6.219 c 12.703 0 23 -10.297 23 -23 0 -6.081 -2.364 -11.606 -6.219 -15.719 z" transform="scale(0.28222223,0.28222223)" opacity="0.1" fill="#000" stroke="none" fill-opacity="1"/><path transform="matrix(4.3274074,0,0,3.2455556,117.19278,-35.348334)" d="m -24 13 a 1.5 2 0 1 1 -3 0 1.5 2 0 1 1 3 0 z" opacity="0.2" fill="#000" stroke="none" fill-opacity="1"/></g><g><path d="m -24 13 a 1.5 2 0 1 1 -3 0 1.5 2 0 1 1 3 0 z" transform="matrix(0,-4.3274075,3.2455556,0,-35.418894,-103.57556)" fill="url(#linearGradient4033)" stroke="none" fill-opacity="1"/><path d="m 40.03 7.531 c 3.712 4.085 5.969 9.514 5.969 15.469 c 0 12.703 -10.297 23 -23 23 c -5.954 0 -11.384 -2.256 -15.469 -5.969 c 4.178 4.291 10.01 6.969 16.469 6.969 c 12.703 0 23 -10.297 23 -23 c 0 -6.462 -2.677 -12.291 -6.969 -16.469 z" transform="scale(0.28222223,0.28222223)" opacity="0.1" fill="#000" stroke="none" fill-opacity="1"/></g><g><g transform="matrix(0.28222223,0,0,0.28222223,0.28222222,0.56444443)" opacity="0.1" fill="#000" fill-opacity="1"><path d="m 19.556 20 c -0.307 0 -0.556 0.224 -0.556 0.5 l 0 2.969 c 0 1.968 1.968 3.973 4 4.25 l 0 1.281 -3 0 0 1 l 8 0 0 -1 l -3 0 0 -1.281 c 2 -0.309 4 -2.282 4 -4.25 l 0 -2.969 c 0 -0.276 -0.249 -0.5 -0.556 -0.5 -0.307 0 -0.462 0.224 -0.462 0.5 0.078 0.959 0.035 1.984 0.035 2.969 0 1.964 -1.848 3.531 -4.02 3.531 -2.169 0 -4 -1.567 -4 -3.531 l 0 -2.969 c 0 -0.276 -0.138 -0.5 -0.445 -0.5 z" fill="#000" color="#bebebe"/><path d="m 24 15 c -1.347 0 -2.637 0.859 -2.938 2 l -0.063 1 6 0 -0.063 -1 c -0.301 -1.141 -1.591 -2 -2.938 -2 z m -3 4 0 1 6 0 0 -1 z m 0 2 0 1 6 0 0 -1 z m 0 2 0 0.5 c 0 1.385 1.461 2.5 3 2.5 1.539 0 3 -1.115 3 -2.5 l 0 -0.5 z" fill="#000" stroke="none"/><rect width="2" height="10" x="23" y="17" fill="#000" stroke="none"/><path d="m 24 8 c -8.284 0 -15 6.716 -15 15 0 8.284 6.716 15 15 15 8.284 0 15 -6.716 15 -15 0 -8.284 -6.716 -15 -15 -15 z m 0 1 c 7.732 0 14 6.268 14 14 0 7.732 -6.268 14 -14 14 c -7.732 0 -14 -6.268 -14 -14 0 -7.732 6.268 -14 14 -14 z" fill="#000" stroke="none"/><path d="m 24 11 c -6.627 0 -12 5.373 -12 12 0 6.627 5.373 12 12 12 6.627 0 12 -5.373 12 -12 0 -6.627 -5.373 -12 -12 -12 z m 0 1 c 6.075 0 11 4.925 11 11 0 6.075 -4.925 11 -11 11 -6.075 0 -11 -4.925 -11 -11 0 -6.075 4.925 -11 11 -11 z" fill="#000" stroke="none"/></g><path d="m 5.519 5.927 c -0.087 0 -0.157 0.063 -0.157 0.141 l 0 0.838 c 0 0.556 0.556 1.121 1.129 1.199 l 0 0.362 -0.847 0 0 0.282 2.258 0 0 -0.282 -0.847 0 0 -0.362 c 0.564 -0.087 1.129 -0.644 1.129 -1.199 l 0 -0.838 c 0 -0.078 -0.07 -0.141 -0.157 -0.141 -0.087 0 -0.13 0.063 -0.13 0.141 0.022 0.271 0.001 0.56 0.001 0.838 0 0.554 -0.522 0.997 -1.134 0.997 -0.612 0 -1.129 -0.442 -1.129 -0.997 l 0 -0.838 c 0 -0.078 -0.039 -0.141 -0.125 -0.141 z" fill="#f9dff5" fill-opacity="1" color="#bebebe"/><path d="m 6.773 4.516 c -0.38 0 -0.744 0.242 -0.829 0.564 l -0.018 0.282 1.693 0 -0.018 -0.282 c -0.085 -0.322 -0.449 -0.564 -0.829 -0.564 z m -0.847 1.129 0 0.282 1.693 0 0 -0.282 z m 0 0.564 0 0.282 1.693 0 0 -0.282 z m 0 0.564 0 0.141 c 0 0.391 0.412 0.706 0.847 0.706 0.434 0 0.847 -0.315 0.847 -0.706 l 0 -0.141 z" fill="#f9dff5" stroke="none" fill-opacity="1"/><rect width="0.564" height="2.822" x="6.491" y="5.08" fill="#f9dff5" stroke="none" fill-opacity="1"/><path d="m 6.773 2.54 c -2.338 0 -4.233 1.895 -4.233 4.233 0 2.338 1.895 4.233 4.233 4.233 2.338 0 4.233 -1.895 4.233 -4.233 c 0 -2.338 -1.895 -4.233 -4.233 -4.233 z m 0 0.282 c 2.182 0 3.951 1.769 3.951 3.951 0 2.182 -1.769 3.951 -3.951 3.951 -2.182 0 -3.951 -1.769 -3.951 -3.951 0 -2.182 1.769 -3.951 3.951 -3.951 z" fill="#f9f9f9" stroke="none" fill-opacity="1"/><path d="m 6.773 3.387 c -1.87 0 -3.387 1.516 -3.387 3.387 0 1.87 1.516 3.387 3.387 3.387 c 1.87 0 3.387 -1.516 3.387 -3.387 0 -1.87 -1.516 -3.387 -3.387 -3.387 z m 0 0.282 c 1.715 0 3.104 1.39 3.104 3.104 0 1.715 -1.39 3.104 -3.104 3.104 -1.715 0 -3.104 -1.39 -3.104 -3.104 0 -1.715 1.39 -3.104 3.104 -3.104 z" fill="#f9f9f9" stroke="none" fill-opacity="1"/></g></svg>
